svg_80x80/postgresql.svg

<svg viewBox="0 0 80 80" xmlns="http://www.w3.org/2000/svg">
<rect width="100%" height="100%" fill="#336791"/>
<path d="M71.8304 47.0359C71.4466 45.871 70.4377 45.0589 69.1353 44.8647C68.5205 44.7728 67.8167 44.8114 66.984 44.9833C65.5335 45.2826 64.4564 45.3968 63.6696 45.419C66.6358 40.4098 69.0479 34.6967 70.4377 29.3185C72.6823 20.6236 71.4822 16.6622 70.0806 14.8704C66.3692 10.128 60.9568 7.58046 54.4244 7.50192C50.9426 7.45894 47.8816 8.14807 46.2873 8.64306C44.8013 8.38074 43.2041 8.23403 41.5269 8.20735C38.3874 8.15696 35.6093 8.84165 33.2387 10.2496C31.9245 9.80643 29.8177 9.17954 27.3834 8.7794C21.6599 7.83981 17.0462 8.57192 13.671 10.9565C9.58475 13.8434 7.69124 18.86 8.0409 25.8669C8.15202 28.0914 9.39658 34.8582 11.3553 41.2783C12.4813 44.967 13.6814 48.0303 14.923 50.3837C16.6832 53.7212 18.5678 55.6878 20.6835 56.3932C21.8688 56.7889 24.0231 57.0646 26.2885 55.178C26.5759 55.5248 26.9582 55.8716 27.4678 56.1917C28.1138 56.5992 28.9035 56.9327 29.6918 57.1298C32.5335 57.8411 35.196 57.6633 37.4673 56.6659C37.4806 57.0705 37.491 57.4573 37.5013 57.7893C37.5162 58.3302 37.531 58.8608 37.5502 59.3572C37.6851 62.7095 37.9132 65.3164 38.5889 67.1392C38.6259 67.24 38.6763 67.3927 38.7281 67.5542C39.0659 68.5872 39.629 70.3152 41.0632 71.6682C42.5477 73.0702 44.3435 73.5 45.9895 73.5C46.8133 73.5 47.6015 73.3918 48.292 73.2451C50.7529 72.7175 53.5472 71.9128 55.5697 69.0332C57.4809 66.3108 58.4099 62.2116 58.5788 55.75C58.5996 55.5678 58.6203 55.3929 58.6396 55.2269C58.6529 55.1157 58.6662 55.0001 58.6796 54.886L59.13 54.926L59.2455 54.9335C61.7524 55.0476 64.8179 54.5155 66.6996 53.6411C68.1871 52.9505 72.9535 50.4341 71.8304 47.0359Z" fill="black"/>
<path d="M65.8693 51.8733C64.3773 52.5669 61.9963 53.0055 59.9339 53.0055C58.9457 53.0055 58.0286 52.9048 57.3189 52.681C56.9826 55.7769 56.2655 61.5523 55.8491 63.9694C55.0698 68.494 53.0533 70.5451 48.4129 71.541C47.6217 71.7099 46.9031 71.7855 46.2512 71.7855C41.8034 71.787 40.3959 68.2643 39.8195 66.8237C39.1158 65.0646 38.8713 59.2892 38.9217 53.4279C37.3171 54.8803 35.308 55.6272 33.0278 55.6272C32.0899 55.6272 31.1062 55.5012 30.0853 55.2448C29.792 55.1722 27.2214 54.4816 27.2554 52.8366C27.2865 51.3324 29.4334 50.8892 30.2409 50.7233C33.0826 50.1379 33.2663 49.9037 34.1494 48.7833C34.3272 48.5566 34.5361 48.2913 34.7924 47.9875C34.788 47.9549 34.7865 47.9208 34.7835 47.8882C33.5093 47.8541 32.2633 47.5162 31.1299 46.9071C30.3609 47.7252 28.2807 49.9734 26.0538 52.6528C24.7115 54.2652 23.4225 54.7395 22.3691 54.7395C21.9409 54.7395 21.5512 54.6609 21.2134 54.5483C18.3302 53.5865 15.5892 48.9093 13.0675 40.6456C11.1518 34.3679 9.93831 27.813 9.83163 25.6818C9.51457 19.3477 11.1488 14.8647 14.6884 12.3556C17.6546 10.2542 21.8105 9.61542 27.0406 10.4587C30.0601 10.9448 32.5329 11.7925 33.493 12.1511C35.6962 10.6454 38.3616 9.91183 41.4434 9.96073C43.1221 9.98889 44.6659 10.2023 46.0808 10.555C46.7594 10.2601 50.2249 9.2138 54.3186 9.25678C60.2866 9.32051 65.2144 11.6235 68.5732 15.9154C69.4074 16.981 69.8104 18.7238 69.7733 21.0965C69.7408 23.2573 69.3333 25.9086 68.5955 28.7644C67.0398 34.7917 64.1565 41.2532 60.6496 46.5973C61.1815 46.9886 62.7994 47.6303 67.3065 46.6996C68.8251 46.3854 69.7408 46.6626 70.0237 47.5221C70.5734 49.1834 67.5465 51.0952 65.8693 51.8733Z" fill="white"/>
<path d="M38.9086 50.5615C38.8804 50.6489 38.839 50.7334 38.7812 50.8134C36.4269 54.1124 32.9955 54.0694 30.5315 53.4529C30.0233 53.3254 29.567 53.1061 29.2988 52.9223C29.5226 52.8171 29.9211 52.6748 30.6115 52.5326C33.9541 51.8434 34.4697 51.3573 35.5972 49.9257C35.855 49.5982 36.1483 49.2262 36.5543 48.7727C37.1588 48.0954 37.4359 48.211 37.9366 48.4185C38.2419 48.5445 38.5411 48.8646 38.7382 49.2529C38.8049 49.3818 38.8582 49.5167 38.8982 49.656C38.9575 49.8664 39.0242 50.2266 38.9086 50.5615Z" fill="#336791"/>
<path d="M37.4512 29.3022C37.1564 27.9402 36.4482 27.1503 35.2881 26.8835C32.7426 26.3011 29.1734 28.2129 28.403 28.8961C28.4104 29.0502 28.4223 29.2458 28.4356 29.4696C28.5304 31.0628 28.7052 34.0298 28.2296 37.4384C27.9348 39.5413 28.4504 41.6013 29.6535 43.2226C29.8402 43.4775 30.0461 43.7206 30.2669 43.9518C31.5529 45.2945 33.2449 46.037 34.9828 46.0429C35.1829 45.2233 35.5059 44.3593 35.8511 43.4301L35.9296 43.2197L35.9889 43.0626C36.1652 42.5868 36.3711 42.1274 36.5904 41.6413C37.6527 39.282 38.9728 36.3461 37.4512 29.3022ZM36.6023 28.9346C36.5371 29.4029 35.7977 30.0358 34.9843 30.0358C34.9147 30.0358 34.8436 30.0313 34.7739 30.0209C34.285 29.9542 33.7931 29.646 33.4553 29.1999C33.3368 29.0413 33.1427 28.7346 33.1812 28.4589C33.196 28.3537 33.2494 28.201 33.4227 28.0706C33.7294 27.8379 34.3383 27.7505 35.0095 27.8454C35.8333 27.9595 36.6837 28.3492 36.6023 28.9346Z" fill="#336791"/>
<path d="M28.9314 45.2307C29.1418 45.45 29.3596 45.656 29.5863 45.8501C28.6825 46.8194 26.7193 48.9594 24.6317 51.4714C23.1531 53.2483 22.1323 52.9074 21.7974 52.7963C19.6091 52.0657 17.0711 47.4403 14.8323 40.1059C12.8959 33.7599 11.7639 27.3784 11.675 25.5882C11.392 19.9299 12.7625 15.9848 15.7509 13.8655C20.6121 10.4169 28.604 12.4784 31.8191 13.5261C31.7731 13.5706 31.7272 13.6165 31.6813 13.6625C31.2161 14.1323 30.7923 14.6317 30.4071 15.1519C26.4082 20.5583 26.5371 28.2247 26.5475 28.6515V28.6589C26.5475 28.8723 26.5653 29.1717 26.589 29.5777C26.6808 31.1086 26.8497 33.957 26.3978 37.1819C26.02 39.8851 26.7342 42.5364 28.3669 44.5845C28.5447 44.8068 28.7329 45.0232 28.9314 45.2307Z" fill="#336791"/>
<path d="M57.9019 45.745C58.0827 45.9717 58.259 46.191 58.3923 46.3837C57.9508 46.5111 57.3611 46.7083 56.8411 47.1558C56.3136 47.6063 55.8573 48.3147 55.6943 49.4648C55.638 49.8738 55.6173 50.3392 55.6439 50.8682C55.5862 51.5989 55.3861 53.401 55.1372 55.4713C55.1343 55.4921 55.1313 55.5143 55.1298 55.5351C54.7742 58.4902 54.3179 61.9714 54.0275 63.655C53.3711 67.4682 51.9681 68.8879 48.024 69.7341C43.9362 70.61 42.4887 68.5234 41.5345 66.1388C40.9241 64.6138 40.6218 57.7981 40.8248 50.2236H40.8219C40.8263 50.0502 40.8159 49.8709 40.7907 49.69C40.7907 49.6886 40.7893 49.6871 40.7893 49.6871C40.7656 49.5092 40.7285 49.3284 40.6767 49.1476C40.3596 48.0406 39.5921 47.1143 38.6691 46.7216C38.6617 46.7171 38.6528 46.7142 38.6454 46.7112C38.275 46.5586 37.5949 46.2755 36.777 46.4845C36.9504 45.7657 37.2526 44.9536 37.5801 44.0747L37.7179 43.7057C37.8734 43.2893 38.0675 42.8565 38.2735 42.4001C38.5224 41.8473 38.792 41.2486 39.0395 40.5668C39.9062 38.203 40.5359 34.8389 39.2543 28.9109C38.635 26.0506 36.5696 24.6531 33.439 24.9776C31.5618 25.1718 29.8446 25.9291 28.9882 26.3633C28.8045 26.4567 28.6356 26.5471 28.4785 26.633C28.6993 23.9728 29.486 19.1815 32.2596 15.7803C32.4907 15.4958 32.7382 15.2201 32.9989 14.9563C35.1265 12.8104 37.9594 11.7507 41.4115 11.8071C44.4444 11.8575 46.9913 12.5792 49.1026 13.6225C51.7251 14.9178 53.6719 16.7081 55.035 18.3205C57.1567 20.8265 58.3049 23.3519 58.7642 24.7138C55.3165 24.3641 52.9726 25.0443 51.7843 26.7442C49.1989 30.4403 53.1978 37.6162 55.1209 41.0648C55.4736 41.6961 55.7773 42.243 55.8736 42.4742C56.3225 43.5634 56.8663 44.3919 57.3582 45.0469C57.5493 45.3048 57.7345 45.536 57.9019 45.745Z" fill="#336791"/>
<path d="M58.3651 32.2705C58.4022 31.1012 58.5503 30.1379 58.6941 29.2072C58.8274 28.3402 58.9548 27.5118 58.9696 26.5974C55.3204 26.1424 53.8669 26.9842 53.295 27.8023C51.3719 30.5514 55.1278 37.2886 56.7309 40.1636C57.1443 40.9032 57.4406 41.4382 57.5784 41.7701C57.7295 42.1377 57.8955 42.4711 58.0673 42.7749C59.1711 40.4274 58.8852 38.0473 58.6081 35.7369C58.4703 34.5928 58.3281 33.4087 58.3651 32.2705ZM56.8568 28.6707C56.6791 28.8589 56.3042 29.182 55.7945 29.2531C55.7279 29.262 55.6627 29.2665 55.599 29.2665C54.8344 29.2665 54.1885 28.6559 54.1381 28.2987C54.0759 27.8378 54.8256 27.4881 55.6004 27.3814C56.3738 27.2732 57.1917 27.4036 57.2554 27.863C57.2569 27.8793 57.2584 27.8956 57.2584 27.9134C57.2584 28.1179 57.1072 28.4084 56.8568 28.6707Z" fill="#336791"/>
<path d="M67.1186 17.0534C69.4136 19.9893 66.886 33.348 59.5653 44.8706C59.4927 44.7787 59.4187 44.6854 59.3431 44.5905C59.3135 44.5535 59.2838 44.5149 59.2512 44.4764C60.3106 42.7262 60.6603 40.9863 60.7047 39.3131C60.7047 39.3131 60.7047 39.3101 60.7062 39.3087C60.7403 37.9941 60.5877 36.7211 60.4425 35.5162C60.3076 34.3914 60.1802 33.3288 60.2128 32.3314C60.2454 31.2732 60.3862 30.3648 60.521 29.4874C60.6884 28.4056 60.8603 27.2866 60.8114 25.9662C60.8455 25.8283 60.8588 25.6653 60.841 25.4741C60.721 24.2085 59.2779 20.425 56.3354 16.9986C55.2405 15.7226 53.8048 14.3458 51.9884 13.1483C51.1364 12.5881 50.2015 12.0665 49.1777 11.6144C50.5556 11.3284 52.4403 11.0617 54.5486 11.1076C59.8943 11.2262 64.1243 13.2269 67.1186 17.0534Z" fill="#336791"/>
<path d="M67.7194 48.4999C67.2068 48.9786 66.3311 49.6218 65.0895 50.1983C64.0228 50.6933 62.2359 51.0653 60.5395 51.1453C58.6638 51.2327 57.7111 50.9349 57.4859 50.7526C57.4503 50.0205 57.5185 49.5107 57.6592 49.1461C57.6829 49.0824 57.7081 49.0231 57.7377 48.9682C58.0281 48.4036 58.5245 48.2643 59.0401 48.119C59.1749 48.082 59.3053 48.0449 59.4312 48.0005C59.5098 48.0642 59.5957 48.1279 59.689 48.1902C61.1958 49.1846 63.8835 49.2928 67.6779 48.5088C67.6912 48.5059 67.7061 48.5029 67.7194 48.4999Z" fill="#336791"/>
</svg>

<svg xmlns="http://www.w3.org/2000/svg" viewBox="0 0 80 80">
  <rect width="100%" height="100%" fill="#336791"/>
  <path d="M71.8 47c-.4-1.1-1.4-2-2.7-2.1H67c-1.5.4-2.5.5-3.3.5a64 64 0 0 0 6.7-16c2.3-8.8 1-12.7-.3-14.5a19.4 19.4 0 0 0-15.7-7.4c-3.5 0-6.5.6-8.1 1.1-1.5-.2-3.1-.4-4.8-.4-3.1 0-5.9.6-8.3 2a38 38 0 0 0-5.8-1.4c-5.7-1-10.4-.2-13.7 2.2-4.1 2.8-6 7.9-5.7 14.9a85.7 85.7 0 0 0 7 24.5c1.7 3.3 3.6 5.3 5.7 6 1.2.4 3.3.7 5.6-1.2l1.2 1c.6.4 1.4.7 2.2 1 2.8.6 5.5.5 7.8-.5v2.7a27.4 27.4 0 0 0 1.2 8.2c.4 1 1 2.7 2.4 4a7 7 0 0 0 4.9 1.9c.8 0 1.6-.1 2.3-.3 2.5-.5 5.2-1.3 7.3-4.2 1.9-2.7 2.8-6.8 3-13.3V55h.6c2.6.1 5.6-.4 7.5-1.3 1.5-.6 6.3-3.2 5.1-6.6Z"/>
  <path fill="#fff" d="M65.9 51.9c-1.5.7-3.9 1.1-6 1.1-1 0-1.9-.1-2.6-.3-.3 3-1 8.9-1.5 11.3-.7 4.5-2.7 6.5-7.4 7.5l-2.1.3c-4.5 0-5.9-3.5-6.5-5-.7-1.7-1-7.5-.9-13.4a8.6 8.6 0 0 1-5.9 2.2c-1 0-1.9-.1-3-.4-.2 0-2.8-.7-2.7-2.4 0-1.5 2.1-2 3-2 2.8-.7 3-.9 3.8-2l.7-.8v-.1c-1.3 0-2.5-.4-3.7-1-.7.8-2.8 3-5 5.8-1.4 1.6-2.7 2-3.7 2-.5 0-.8 0-1.2-.2-2.9-1-5.6-5.6-8.1-13.9-2-6.2-3.2-12.8-3.3-15-.3-6.3 1.3-10.7 4.9-13.2 3-2.1 7.1-2.8 12.3-2 3 .5 5.5 1.4 6.5 1.8 2.2-1.6 4.9-2.3 8-2.2 1.6 0 3.2.2 4.6.6.7-.3 4.1-1.4 8.2-1.3 6 0 11 2.3 14.3 6.6.8 1 1.2 2.8 1.2 5.2 0 2.2-.5 4.8-1.2 7.7a62 62 0 0 1-8 17.8c.6.4 2.2 1 6.7.1 1.5-.3 2.4 0 2.7.8.6 1.7-2.5 3.6-4.1 4.4Z"/>
  <path fill="#336791" d="m39 50.6-.2.2c-2.4 3.3-5.8 3.3-8.3 2.7a4 4 0 0 1-1.2-.6 6 6 0 0 1 1.3-.4c3.4-.7 3.9-1.1 5-2.6.3-.3.5-.7 1-1.1.6-.7.8-.6 1.3-.4.3.1.6.5.8.9l.2.4v.9ZM37.5 29.3c-.3-1.4-1-2.1-2.2-2.4-2.6-.6-6.1 1.3-6.9 2v.6c.1 1.6.3 4.5-.2 8a7.8 7.8 0 0 0 2 6.5c1.4 1.3 3 2 4.8 2l.9-2.6V43.1l.7-1.5c1-2.3 2.4-5.3.9-12.3Zm-.9-.4c0 .5-.8 1.1-1.6 1.1h-.2a2 2 0 0 1-1.3-.8c-.2-.2-.4-.5-.3-.7 0-.1 0-.3.2-.4.3-.3 1-.3 1.6-.3.8.2 1.7.5 1.6 1.1Z"/>
  <path fill="#336791" d="M29 45.2c.1.3.4.5.6.7-1 1-2.9 3-5 5.6-1.4 1.7-2.5 1.4-2.8 1.3-2.2-.7-4.7-5.4-7-12.7-1.9-6.3-3-12.7-3.1-14.5-.3-5.7 1-9.6 4-11.7 5-3.5 12.9-1.4 16.1-.4a11 11 0 0 0-1.4 1.7c-4 5.4-3.9 13-3.9 13.5v.9c.2 1.5.3 4.4-.1 7.6a9.7 9.7 0 0 0 2.5 8Z"/>
  <path fill="#336791" d="m57.9 45.7.5.7a4 4 0 0 0-1.6.8c-.5.4-1 1.1-1.1 2.3v1.4A156.5 156.5 0 0 1 54 63.7c-.6 3.8-2 5.2-6 6-4 1-5.5-1.2-6.5-3.6-.6-1.5-.9-8.3-.7-15.9v-.5l-.1-.6c-.3-1-1.1-2-2-2.4-.4-.1-1.1-.4-2-.2l.9-2.4.1-.4.6-1.3.7-1.8c1-2.4 1.5-5.8.3-11.7-.7-2.8-2.7-4.2-5.9-4a13.4 13.4 0 0 0-5 1.7A20.5 20.5 0 0 1 33 15c2.1-2.2 5-3.2 8.4-3.2A17.8 17.8 0 0 1 55 18.3c2.2 2.5 3.3 5 3.8 6.4-3.5-.3-5.8.3-7 2-2.6 3.7 1.4 11 3.3 14.4l.8 1.4c.4 1 1 1.9 1.5 2.5l.5.7Z"/>
  <path fill="#336791" d="M58.4 32.3c0-1.2.2-2.2.3-3l.3-2.7c-3.7-.5-5.1.4-5.7 1.2-2 2.8 1.8 9.5 3.4 12.4a19.7 19.7 0 0 1 1.4 2.6c1-2.4.8-4.8.5-7-.1-1.2-.3-2.4-.2-3.5Zm-1.5-3.6c-.2.2-.6.5-1.1.6h-.2c-.8 0-1.4-.6-1.5-1 0-.5.7-.8 1.5-1 .8 0 1.6.1 1.7.6l-.4.8Z"/>
  <path fill="#336791" d="M67.1 17c2.3 3-.2 16.3-7.5 27.9l-.3-.3v-.1c1-1.8 1.4-3.5 1.4-5.2 0-1.3-.1-2.6-.3-3.8l-.2-3.2c0-1 .2-2 .3-2.8a17.7 17.7 0 0 0 .3-4c0-1.3-1.5-5-4.5-8.5a21 21 0 0 0-7.1-5.4c1.4-.3 3.2-.5 5.3-.5 5.4.1 9.6 2.1 12.6 6ZM67.7 48.5c-.5.5-1.4 1.1-2.6 1.7-1 .5-2.9.9-4.6 1-1.8 0-2.8-.3-3-.4a4 4 0 0 1 .2-1.8c.3-.6.8-.7 1.3-.9l.4-.1.3.2c1.5 1 4.2 1 8 .3Z"/>
</svg>
